X:1
T:Off She Goes -- Jig
R:slide
B:Ryan's Mammoth Collection
N: 86 445
Z: Contributed by Ray Davies,  ray:davies99.freeserve.co.uk
M:12/8
L:1/8
K:D
vF2A G2B ABc d3  | F2A G2B AFD E3  |
F2A G2B ABc d3  | f2d g2f edc d3:|
|:f>af d2f g>bg e2g | f>af d2f ecA A3  |
  f>af d2f g>bg e2g | f2d g2f e>dc d3 :|
